images/mail.svg

<svg width="120" height="120" xmlns="http://www.w3.org/2000/svg" fill-rule="evenodd" clip-rule="evenodd" stroke-linejoin="round" stroke-miterlimit="1.414"><path fill="#007aff" d="M0 0h120v120H0z"/><path d="M100 34c0-2.208-1.793-4-4-4H24c-2.207 0-4 1.792-4 4v52c0 2.208 1.793 4 4 4h72c2.207 0 4-1.792 4-4V34z" fill="#fff"/><path d="M94.548 35.516l-.22.856-3.706 3.584-9.038 8.663-5.541 5.258-5.704 5.354-5.474 5.058-2.53 2.295-1.018.909-.255.193-.282.15-.303.103-.317.054-.149.001-.171-.001-.317-.053-.303-.103-.283-.149-.256-.193-.915-.814-2.304-2.076-4.727-4.332-4.781-4.458-4.708-4.448-8.692-8.327-6.882-6.668-.044-.7.7-.044 7.078 5.649 8.698 7.017 4.6 3.765 4.595 3.816 4.472 3.785 2.155 1.858.001-.014L60 63.333l.009-.008v.013l2.163-1.899 2.374-2.031 5.209-4.369 5.523-4.552 5.46-4.45 9.114-7.352 3.82-3.057.879-.114-.003.002zM46.356 64.356L26.707 84.707h-1.414v-1.414l20.351-19.649 1.063-.351-.351 1.063zM74.353 63.647l20.354 19.646v1.414h-1.414L73.647 64.353l-.354-1.06 1.06.354z" fill="#007aff"/></svg>

<?xml version="1.0" encoding="UTF-8" standalone="no"?>
<!DOCTYPE svg PUBLIC "-//W3C//DTD SVG 1.1//EN" "http://www.w3.org/Graphics/SVG/1.1/DTD/svg11.dtd">
<svg width="120px" height="120px" version="1.1" xmlns="http://www.w3.org/2000/svg" xmlns:xlink="http://www.w3.org/1999/xlink" xml:space="preserve" style="fill-rule:evenodd;clip-rule:evenodd;stroke-linejoin:round;stroke-miterlimit:1.41421;">
    <rect id="Background" x="0" y="0" width="120" height="120" style="fill:#007aff;"/>
    <g id="Envelope" transform="matrix(1.81818,1.11332e-16,1.11332e-16,1.36364,-21.8182,-23.1818)">
        <path d="M67,41.933C67,40.314 66.014,39 64.8,39L25.2,39C23.986,39 23,40.314 23,41.933L23,80.067C23,81.686 23.986,83 25.2,83L64.8,83C66.014,83 67,81.686 67,80.067L67,41.933Z" style="fill:#fff;"/>
    </g>
    <path id="Fold-1" d="M94.548,35.516L94.328,36.372L90.622,39.956L81.584,48.619L76.043,53.877L70.339,59.231L64.865,64.289L62.335,66.584L61.317,67.493L61.062,67.686L60.78,67.836L60.477,67.939L60.16,67.993L60.011,67.994L59.84,67.993L59.84,67.993L59.523,67.94L59.22,67.837L58.937,67.688L58.681,67.495L57.766,66.681L55.462,64.605L50.735,60.273L45.954,55.815L41.246,51.367L32.554,43.04L25.672,36.372L25.628,35.672L26.328,35.628L33.406,41.277L42.104,48.294L46.704,52.059L51.299,55.875L55.771,59.66L57.926,61.518L57.927,61.504L60,63.333L60.009,63.325L60.009,63.338L62.172,61.439L64.546,59.408L69.755,55.039L75.278,50.487L80.738,46.037L89.852,38.685L93.672,35.628L94.551,35.514L94.548,35.516Z" style="fill:#007aff;"/>
    <path id="Fold-2" d="M46.356,64.356L26.707,84.707L25.293,84.707L25.293,83.293L45.644,63.644L46.707,63.293L46.356,64.356Z" style="fill:#007aff;"/>
    <g id="Fold-3" transform="matrix(-1,0,0,1,120,0)">
        <path d="M45.647,63.647L25.293,83.293L25.293,84.707L26.707,84.707L46.353,64.353L46.707,63.293L45.647,63.647Z" style="fill:#007aff;"/>
    </g>
</svg>
